X: 37144
T: Siobhán McCaughey's
R: reel
M: 4/4
K: Aminor
|^gag|:eAAe gAeA|AAeA GABd|eAAe gAeA|^gaed cAGc|
eAAe gAeA|AAed BAGB|c2ec dBGA|1 BAGB A^gag:|2 BAGB A2AB||
|:AFFF ABce|BAGA Bcdg|eAAe gAeA|^gaed cAGc|
AFFF ABce|BAGA Bcdg|eAce ^gaed|1 cAGc A2AB:|2 cAGc ABcd||

